assets/img/discordLogo.svg

<svg width="39" height="30" viewBox="0 0 39 30" fill="none" xmlns="http://www.w3.org/2000/svg">
<path d="M33.016 2.46598C30.4871 1.30542 27.8187 0.477107 25.0771 0.00169311C25.0523 -0.00248994 25.0268 0.00112282 25.0041 0.0120348C24.9814 0.0229467 24.9626 0.0406219 24.9504 0.0626299C24.6067 0.671999 24.2265 1.46905 23.9608 2.09305C21.0056 1.64457 17.9997 1.64457 15.0445 2.09305C14.7481 1.39793 14.4129 0.720048 14.0403 0.0626299C14.0278 0.0408629 14.009 0.0233914 13.9863 0.0125145C13.9637 0.00163762 13.9383 -0.00213489 13.9135 0.00169311C11.1714 0.474563 8.50232 1.3033 5.97466 2.46598C5.95303 2.47423 5.93494 2.48974 5.92347 2.50985C0.868153 10.0636 -0.51877 17.4321 0.161285 24.7079C0.163722 24.7421 0.18566 24.7762 0.212472 24.7981C3.15627 26.9787 6.44897 28.6436 9.95018 29.7218C9.9749 29.7296 10.0015 29.7293 10.026 29.721C10.0506 29.7127 10.0718 29.6967 10.0867 29.6755C10.8374 28.6518 11.5053 27.572 12.0805 26.4361C12.0925 26.4127 12.0966 26.3861 12.0922 26.3601C12.0878 26.3342 12.0752 26.3104 12.0562 26.2923C12.0436 26.2804 12.0286 26.2713 12.0123 26.2655C10.9621 25.8619 9.94505 25.377 8.97032 24.8152C8.94309 24.7998 8.92284 24.7744 8.91377 24.7445C8.90469 24.7145 8.90749 24.6823 8.92157 24.6543C8.92986 24.6362 8.9424 24.6203 8.95813 24.608C9.16288 24.4544 9.36763 24.2936 9.56262 24.1327C9.57985 24.1188 9.60052 24.1099 9.62242 24.1069C9.64431 24.1039 9.66661 24.1069 9.68694 24.1156C16.0707 27.0308 22.9809 27.0308 29.2867 24.1156C29.3077 24.1065 29.3309 24.1033 29.3536 24.1063C29.3764 24.1093 29.3979 24.1184 29.4159 24.1327C29.6109 24.2936 29.8156 24.4544 30.0203 24.608C30.0369 24.6201 30.0503 24.6362 30.0591 24.6547C30.068 24.6732 30.0721 24.6937 30.0712 24.7142C30.0702 24.7347 30.0642 24.7547 30.0536 24.7723C30.043 24.7899 30.0283 24.8047 30.0106 24.8152C29.0381 25.3821 28.0197 25.8664 26.9662 26.263C26.9494 26.2691 26.9341 26.2788 26.9215 26.2915C26.9089 26.3041 26.8991 26.3194 26.8931 26.3362C26.8874 26.3524 26.8852 26.3697 26.8864 26.3869C26.8877 26.4041 26.8924 26.4208 26.9004 26.4361C27.4854 27.5695 28.1557 28.6518 28.8918 29.6755C28.9067 29.6967 28.9279 29.7127 28.9525 29.721C28.977 29.7293 29.0036 29.7296 29.0283 29.7218C32.5354 28.647 35.8334 26.9819 38.7806 24.7981C38.7954 24.7879 38.8077 24.7745 38.8165 24.7589C38.8254 24.7433 38.8306 24.7258 38.8318 24.7079C39.6459 16.2962 37.4693 8.98866 33.0648 2.51229C33.0603 2.50159 33.0537 2.49195 33.0453 2.48397C33.0369 2.47599 33.0269 2.46986 33.016 2.46598ZM13.0336 20.2766C11.1104 20.2766 9.5285 18.5119 9.5285 16.3474C9.5285 14.1805 11.0812 12.4157 13.0336 12.4157C15.0006 12.4157 16.5679 14.1951 16.5387 16.3474C16.5387 18.5119 14.986 20.2766 13.0336 20.2766ZM25.9912 20.2766C24.0705 20.2766 22.4861 18.5119 22.4861 16.3474C22.4861 14.1805 24.0388 12.4157 25.9912 12.4157C27.9582 12.4157 29.528 14.1951 29.4963 16.3474C29.4963 18.5119 27.9582 20.2766 25.9912 20.2766Z" fill="black"/>
</svg>

<svg width="39" height="30" fill="none" xmlns="http://www.w3.org/2000/svg"><path d="M33.016 2.466A32.24 32.24 0 0 0 25.077.002a.122.122 0 0 0-.127.06c-.343.61-.723 1.407-.99 2.031a29.713 29.713 0 0 0-8.916 0A20.134 20.134 0 0 0 14.04.063a.124.124 0 0 0-.126-.061 32.02 32.02 0 0 0-7.94 2.464.1.1 0 0 0-.05.044C.867 10.064-.52 17.432.16 24.708a.137.137 0 0 0 .051.09 32.36 32.36 0 0 0 9.738 4.924.122.122 0 0 0 .137-.047 23.196 23.196 0 0 0 1.994-3.239.122.122 0 0 0-.069-.17 21.63 21.63 0 0 1-3.042-1.45.122.122 0 0 1-.048-.162.125.125 0 0 1 .036-.046c.205-.154.41-.314.605-.475a.121.121 0 0 1 .124-.017c6.384 2.915 13.294 2.915 19.6 0a.127.127 0 0 1 .129.017c.195.16.4.321.604.475a.124.124 0 0 1 .034.164.124.124 0 0 1-.043.043 20.123 20.123 0 0 1-3.045 1.448.121.121 0 0 0-.08.124.127.127 0 0 0 .014.05 25.924 25.924 0 0 0 1.992 3.238.122.122 0 0 0 .136.047 32.256 32.256 0 0 0 9.753-4.924.118.118 0 0 0 .05-.09c.815-8.412-1.362-15.72-5.766-22.196a.084.084 0 0 0-.049-.046Zm-19.982 17.81c-1.924 0-3.506-1.764-3.506-3.929 0-2.167 1.553-3.931 3.506-3.931 1.967 0 3.534 1.78 3.505 3.931 0 2.165-1.553 3.93-3.505 3.93Zm12.957 0c-1.92 0-3.505-1.764-3.505-3.929 0-2.167 1.553-3.931 3.505-3.931 1.967 0 3.537 1.78 3.505 3.931 0 2.165-1.538 3.93-3.505 3.93Z" fill="#000"/></svg>
